;Generated with Kcalibrator v1.0.4 (Victor Shapovalov, 29.06.2021)
M190 S60
M109 S210
G28
G90
M82
M900 K0
G92 E0
G0 Z0.200 F300
G92 Z0.200
G0 Z2 F600
M106 S127
G0 X183.500 Y86.500 Z0.200 F9600.0
G1 X51.500 Y86.500 Z0.200 E4.39034 F2400.0
G1 X51.500 Y148.500 Z0.200 E6.45247 F2400.0
G1 X183.500 Y148.500 Z0.200 E10.84280 F2400.0
G1 X183.500 Y86.500 Z0.200 E12.90493 F2400.0
G0 X183.900 Y86.100 Z0.200 F9600.0
G1 X51.100 Y86.100 Z0.200 E17.32188 F2400.0
G1 X51.100 Y148.900 Z0.200 E19.41061 F2400.0
G1 X183.900 Y148.900 Z0.200 E23.82756 F2400.0
G1 X183.900 Y86.100 Z0.200 E25.91630 F2400.0
G0 X184.300 Y85.700 Z0.200 F9600.0
G1 X50.700 Y85.700 Z0.200 E30.35985 F2400.0
G1 X50.700 Y149.300 Z0.200 E32.47520 F2400.0
G1 X184.300 Y149.300 Z0.200 E36.91875 F2400.0
G1 X184.300 Y85.700 Z0.200 E39.03409 F2400.0
G0 X184.700 Y85.300 Z0.200 F9600.0
G1 X50.300 Y85.300 Z0.200 E43.50426 F2400.0
G1 X50.300 Y149.700 Z0.200 E45.64621 F2400.0
G1 X184.700 Y149.700 Z0.200 E50.11637 F2400.0
G1 X184.700 Y85.300 Z0.200 E52.25832 F2400.0
G0 X185.100 Y84.900 Z0.200 F9600.0
G1 X49.900 Y84.900 Z0.200 E56.75509 F2400.0
G1 X49.900 Y150.100 Z0.200 E58.92366 F2400.0
G1 X185.100 Y150.100 Z0.200 E63.42043 F2400.0
G1 X185.100 Y84.900 Z0.200 E65.58899 F2400.0
G0 X185.500 Y84.500 Z0.200 F9600.0
G1 X49.500 Y84.500 Z0.200 E70.11236 F2400.0
G1 X49.500 Y150.500 Z0.200 E72.30753 F2400.0
G1 X185.500 Y150.500 Z0.200 E76.83091 F2400.0
G1 X185.500 Y84.500 Z0.200 E79.02608 F2400.0
G0 X185.900 Y84.100 Z0.200 F9600.0
G1 X49.100 Y84.100 Z0.200 E83.57607 F2400.0
G1 X49.100 Y150.900 Z0.200 E85.79784 F2400.0
G1 X185.900 Y150.900 Z0.200 E90.34783 F2400.0
G1 X185.900 Y84.100 Z0.200 E92.56961 F2400.0
G0 X186.300 Y83.700 Z0.200 F9600.0
G1 X48.700 Y83.700 Z0.200 E97.14620 F2400.0
G1 X48.700 Y151.300 Z0.200 E99.39459 F2400.0
G1 X186.300 Y151.300 Z0.200 E103.97118 F2400.0
G1 X186.300 Y83.700 Z0.200 E106.21957 F2400.0
G0 X186.700 Y83.300 Z0.200 F9600.0
G1 X48.300 Y83.300 Z0.200 E110.82277 F2400.0
G1 X48.300 Y151.700 Z0.200 E113.09776 F2400.0
G1 X186.700 Y151.700 Z0.200 E117.70097 F2400.0
G1 X186.700 Y83.300 Z0.200 E119.97596 F2400.0
G0 X187.100 Y82.900 Z0.200 F9600.0
G1 X47.900 Y82.900 Z0.200 E124.60577 F2400.0
G1 X47.900 Y152.100 Z0.200 E126.90737 F2400.0
G1 X187.100 Y152.100 Z0.200 E131.53718 F2400.0
G1 X187.100 Y82.900 Z0.200 E133.83878 F2400.0
G0 X187.500 Y82.500 Z0.200 F9600.0
G1 X47.500 Y82.500 Z0.200 E138.49520 F2400.0
G1 X47.500 Y152.500 Z0.200 E140.82341 F2400.0
G1 X187.500 Y152.500 Z0.200 E145.47983 F2400.0
G1 X187.500 Y82.500 Z0.200 E147.80804 F2400.0
G0 X187.900 Y82.100 Z0.200 F9600.0
G1 X47.100 Y82.100 Z0.200 E152.49107 F2400.0
G1 X47.100 Y152.900 Z0.200 E154.84588 F2400.0
G1 X187.900 Y152.900 Z0.200 E159.52891 F2400.0
G1 X187.900 Y82.100 Z0.200 E161.88373 F2400.0
G0 X188.300 Y81.700 Z0.200 F9600.0
G1 X46.700 Y81.700 Z0.200 E166.59336 F2400.0
G1 X46.700 Y153.300 Z0.200 E168.97479 F2400.0
G1 X188.300 Y153.300 Z0.200 E173.68443 F2400.0
G1 X188.300 Y81.700 Z0.200 E176.06585 F2400.0
G0 X188.700 Y81.300 Z0.200 F9600.0
G1 X46.300 Y81.300 Z0.200 E180.80209 F2400.0
G1 X46.300 Y153.700 Z0.200 E183.21013 F2400.0
G1 X188.700 Y153.700 Z0.200 E187.94637 F2400.0
G1 X188.700 Y81.300 Z0.200 E190.35440 F2400.0
G0 X189.100 Y80.900 Z0.200 F9600.0
G1 X45.900 Y80.900 Z0.200 E195.11726 F2400.0
G1 X45.900 Y154.100 Z0.200 E197.55190 F2400.0
G1 X189.100 Y154.100 Z0.200 E202.31475 F2400.0
G1 X189.100 Y80.900 Z0.200 E204.74939 F2400.0
G0 X189.500 Y80.500 Z0.200 F9600.0
G1 X45.500 Y80.500 Z0.200 E209.53885 F2400.0
G1 X45.500 Y154.500 Z0.200 E212.00010 F2400.0
G1 X189.500 Y154.500 Z0.200 E216.78956 F2400.0
G1 X189.500 Y80.500 Z0.200 E219.25081 F2400.0
G0 X189.900 Y80.100 Z0.200 F9600.0
G1 X45.100 Y80.100 Z0.200 E224.06688 F2400.0
G1 X45.100 Y154.900 Z0.200 E226.55474 F2400.0
G1 X189.900 Y154.900 Z0.200 E231.37080 F2400.0
G1 X189.900 Y80.100 Z0.200 E233.85866 F2400.0
G0 X190.300 Y79.700 Z0.200 F9600.0
G1 X44.700 Y79.700 Z0.200 E238.70134 F2400.0
G1 X44.700 Y155.300 Z0.200 E241.21580 F2400.0
G1 X190.300 Y155.300 Z0.200 E246.05848 F2400.0
G1 X190.300 Y79.700 Z0.200 E248.57295 F2400.0
G0 X190.700 Y79.300 Z0.200 F9600.0
G1 X44.300 Y79.300 Z0.200 E253.44223 F2400.0
G1 X44.300 Y155.700 Z0.200 E255.98330 F2400.0
G1 X190.700 Y155.700 Z0.200 E260.85259 F2400.0
G1 X190.700 Y79.300 Z0.200 E263.39366 F2400.0
G0 X191.100 Y78.900 Z0.200 F9600.0
G1 X43.900 Y78.900 Z0.200 E268.28955 F2400.0
G1 X43.900 Y156.100 Z0.200 E270.85724 F2400.0
G1 X191.100 Y156.100 Z0.200 E275.75313 F2400.0
G1 X191.100 Y78.900 Z0.200 E278.32081 F2400.0
G92 E0
G1 E-4.0 F1800.0
M900 K0.000
M117 K=0.000
G0 X117.500 Y152.500 Z0.400 F9600.0
G1 E0 F1800.0
G1 X75.500 Y152.500 Z0.400 E1.39693 F1200.0
G1 X47.500 Y152.500 Z0.400 E2.32821 F6000.0
G1 X47.500 Y117.500 Z0.400 E3.49231 F6000.0
G1 X47.500 Y82.500 Z0.400 E4.65642 F1200.0
G1 X75.500 Y82.500 Z0.400 E5.58770 F1200.0
G1 X159.500 Y82.500 Z0.400 E8.38155 F6000.0
G1 X187.500 Y82.500 Z0.400 E9.31284 F1200.0
G1 X187.500 Y117.500 Z0.400 E10.47694 F1200.0
G1 X187.500 Y152.500 Z0.400 E11.64105 F6000.0
G1 X159.500 Y152.500 Z0.400 E12.57233 F6000.0
G1 X117.700 Y152.500 Z0.400 E14.89389 F1200.0
G92 E0
G0 X117.500 Y152.900 Z0.400 F9600.0
G1 X75.260 Y152.900 Z0.400 E1.40491 F1200.0
G1 X47.100 Y152.900 Z0.400 E2.34151 F6000.0
G1 X47.100 Y117.500 Z0.400 E3.51892 F6000.0
G1 X47.100 Y82.100 Z0.400 E4.69633 F1200.0
G1 X75.260 Y82.100 Z0.400 E5.63294 F1200.0
G1 X159.740 Y82.100 Z0.400 E8.44275 F6000.0
G1 X187.900 Y82.100 Z0.400 E9.37936 F1200.0
G1 X187.900 Y117.500 Z0.400 E10.55677 F1200.0
G1 X187.900 Y152.900 Z0.400 E11.73418 F6000.0
G1 X159.740 Y152.900 Z0.400 E12.67078 F6000.0
G1 X117.700 Y152.900 Z0.400 E15.00564 F1200.0
G92 E0
G1 E-4.0 F1800.0
G0 X117.500 Y152.500 Z0.600 F9600.0
G1 E0 F1800.0
G1 X75.500 Y152.500 Z0.600 E1.39693 F1200.0
G1 X47.500 Y152.500 Z0.600 E2.32821 F6000.0
G1 X47.500 Y117.500 Z0.600 E3.49231 F6000.0
G1 X47.500 Y82.500 Z0.600 E4.65642 F1200.0
G1 X75.500 Y82.500 Z0.600 E5.58770 F1200.0
G1 X159.500 Y82.500 Z0.600 E8.38155 F6000.0
G1 X187.500 Y82.500 Z0.600 E9.31284 F1200.0
G1 X187.500 Y117.500 Z0.600 E10.47694 F1200.0
G1 X187.500 Y152.500 Z0.600 E11.64105 F6000.0
G1 X159.500 Y152.500 Z0.600 E12.57233 F6000.0
G1 X117.700 Y152.500 Z0.600 E14.89389 F1200.0
G92 E0
G0 X117.500 Y152.900 Z0.600 F9600.0
G1 X75.260 Y152.900 Z0.600 E1.40491 F1200.0
G1 X47.100 Y152.900 Z0.600 E2.34151 F6000.0
G1 X47.100 Y117.500 Z0.600 E3.51892 F6000.0
G1 X47.100 Y82.100 Z0.600 E4.69633 F1200.0
G1 X75.260 Y82.100 Z0.600 E5.63294 F1200.0
G1 X159.740 Y82.100 Z0.600 E8.44275 F6000.0
G1 X187.900 Y82.100 Z0.600 E9.37936 F1200.0
G1 X187.900 Y117.500 Z0.600 E10.55677 F1200.0
G1 X187.900 Y152.900 Z0.600 E11.73418 F6000.0
G1 X159.740 Y152.900 Z0.600 E12.67078 F6000.0
G1 X117.700 Y152.900 Z0.600 E15.00564 F1200.0
G92 E0
G1 E-4.0 F1800.0
G0 X117.500 Y152.500 Z0.800 F9600.0
G1 E0 F1800.0
G1 X75.500 Y152.500 Z0.800 E1.39693 F1200.0
G1 X47.500 Y152.500 Z0.800 E2.32821 F6000.0
G1 X47.500 Y117.500 Z0.800 E3.49231 F6000.0
G1 X47.500 Y82.500 Z0.800 E4.65642 F1200.0
G1 X75.500 Y82.500 Z0.800 E5.58770 F1200.0
G1 X159.500 Y82.500 Z0.800 E8.38155 F6000.0
G1 X187.500 Y82.500 Z0.800 E9.31284 F1200.0
G1 X187.500 Y117.500 Z0.800 E10.47694 F1200.0
G1 X187.500 Y152.500 Z0.800 E11.64105 F6000.0
G1 X159.500 Y152.500 Z0.800 E12.57233 F6000.0
G1 X117.700 Y152.500 Z0.800 E14.89389 F1200.0
G92 E0
G0 X117.500 Y152.900 Z0.800 F9600.0
G1 X75.260 Y152.900 Z0.800 E1.40491 F1200.0
G1 X47.100 Y152.900 Z0.800 E2.34151 F6000.0
G1 X47.100 Y117.500 Z0.800 E3.51892 F6000.0
G1 X47.100 Y82.100 Z0.800 E4.69633 F1200.0
G1 X75.260 Y82.100 Z0.800 E5.63294 F1200.0
G1 X159.740 Y82.100 Z0.800 E8.44275 F6000.0
G1 X187.900 Y82.100 Z0.800 E9.37936 F1200.0
G1 X187.900 Y117.500 Z0.800 E10.55677 F1200.0
G1 X187.900 Y152.900 Z0.800 E11.73418 F6000.0
G1 X159.740 Y152.900 Z0.800 E12.67078 F6000.0
G1 X117.700 Y152.900 Z0.800 E15.00564 F1200.0
G92 E0
G1 E-4.0 F1800.0
G0 X117.500 Y152.500 Z1.000 F9600.0
G1 E0 F1800.0
G1 X75.500 Y152.500 Z1.000 E1.39693 F1200.0
G1 X47.500 Y152.500 Z1.000 E2.32821 F6000.0
G1 X47.500 Y117.500 Z1.000 E3.49231 F6000.0
G1 X47.500 Y82.500 Z1.000 E4.65642 F1200.0
G1 X75.500 Y82.500 Z1.000 E5.58770 F1200.0
G1 X159.500 Y82.500 Z1.000 E8.38155 F6000.0
G1 X187.500 Y82.500 Z1.000 E9.31284 F1200.0
G1 X187.500 Y117.500 Z1.000 E10.47694 F1200.0
G1 X187.500 Y152.500 Z1.000 E11.64105 F6000.0
G1 X159.500 Y152.500 Z1.000 E12.57233 F6000.0
G1 X117.700 Y152.500 Z1.000 E14.89389 F1200.0
G92 E0
G0 X117.500 Y152.900 Z1.000 F9600.0
G1 X75.260 Y152.900 Z1.000 E1.40491 F1200.0
G1 X47.100 Y152.900 Z1.000 E2.34151 F6000.0
G1 X47.100 Y117.500 Z1.000 E3.51892 F6000.0
G1 X47.100 Y82.100 Z1.000 E4.69633 F1200.0
G1 X75.260 Y82.100 Z1.000 E5.63294 F1200.0
G1 X159.740 Y82.100 Z1.000 E8.44275 F6000.0
G1 X187.900 Y82.100 Z1.000 E9.37936 F1200.0
G1 X187.900 Y117.500 Z1.000 E10.55677 F1200.0
G1 X187.900 Y152.900 Z1.000 E11.73418 F6000.0
G1 X159.740 Y152.900 Z1.000 E12.67078 F6000.0
G1 X117.700 Y152.900 Z1.000 E15.00564 F1200.0
G92 E0
G1 E-4.0 F1800.0
G0 X117.500 Y152.500 Z1.200 F9600.0
G1 E0 F1800.0
G1 X75.500 Y152.500 Z1.200 E1.39693 F1200.0
G1 X47.500 Y152.500 Z1.200 E2.32821 F6000.0
G1 X47.500 Y117.500 Z1.200 E3.49231 F6000.0
G1 X47.500 Y82.500 Z1.200 E4.65642 F1200.0
G1 X75.500 Y82.500 Z1.200 E5.58770 F1200.0
G1 X159.500 Y82.500 Z1.200 E8.38155 F6000.0
G1 X187.500 Y82.500 Z1.200 E9.31284 F1200.0
G1 X187.500 Y117.500 Z1.200 E10.47694 F1200.0
G1 X187.500 Y152.500 Z1.200 E11.64105 F6000.0
G1 X159.500 Y152.500 Z1.200 E12.57233 F6000.0
G1 X117.700 Y152.500 Z1.200 E14.89389 F1200.0
G92 E0
G0 X117.500 Y152.900 Z1.200 F9600.0
G1 X75.260 Y152.900 Z1.200 E1.40491 F1200.0
G1 X47.100 Y152.900 Z1.200 E2.34151 F6000.0
G1 X47.100 Y117.500 Z1.200 E3.51892 F6000.0
G1 X47.100 Y82.100 Z1.200 E4.69633 F1200.0
G1 X75.260 Y82.100 Z1.200 E5.63294 F1200.0
G1 X159.740 Y82.100 Z1.200 E8.44275 F6000.0
G1 X187.900 Y82.100 Z1.200 E9.37936 F1200.0
G1 X187.900 Y117.500 Z1.200 E10.55677 F1200.0
G1 X187.900 Y152.900 Z1.200 E11.73418 F6000.0
G1 X159.740 Y152.900 Z1.200 E12.67078 F6000.0
G1 X117.700 Y152.900 Z1.200 E15.00564 F1200.0
G92 E0
G1 E-4.0 F1800.0
M900 K0.010
M117 K=0.010
G0 X117.500 Y152.500 Z1.400 F9600.0
G1 E0 F1800.0
G1 X75.500 Y152.500 Z1.400 E1.39693 F1200.0
G1 X47.500 Y152.500 Z1.400 E2.32821 F6000.0
G1 X47.500 Y117.500 Z1.400 E3.49231 F6000.0
G1 X47.500 Y82.500 Z1.400 E4.65642 F1200.0
G1 X75.500 Y82.500 Z1.400 E5.58770 F1200.0
G1 X159.500 Y82.500 Z1.400 E8.38155 F6000.0
G1 X187.500 Y82.500 Z1.400 E9.31284 F1200.0
G1 X187.500 Y117.500 Z1.400 E10.47694 F1200.0
G1 X187.500 Y152.500 Z1.400 E11.64105 F6000.0
G1 X159.500 Y152.500 Z1.400 E12.57233 F6000.0
G1 X117.700 Y152.500 Z1.400 E14.89389 F1200.0
G92 E0
G0 X117.500 Y152.900 Z1.400 F9600.0
G1 X75.260 Y152.900 Z1.400 E1.40491 F1200.0
G1 X47.100 Y152.900 Z1.400 E2.34151 F6000.0
G1 X47.100 Y117.500 Z1.400 E3.51892 F6000.0
G1 X47.100 Y82.100 Z1.400 E4.69633 F1200.0
G1 X75.260 Y82.100 Z1.400 E5.63294 F1200.0
G1 X159.740 Y82.100 Z1.400 E8.44275 F6000.0
G1 X187.900 Y82.100 Z1.400 E9.37936 F1200.0
G1 X187.900 Y117.500 Z1.400 E10.55677 F1200.0
G1 X187.900 Y152.900 Z1.400 E11.73418 F6000.0
G1 X159.740 Y152.900 Z1.400 E12.67078 F6000.0
G1 X117.700 Y152.900 Z1.400 E15.00564 F1200.0
G92 E0
G1 E-4.0 F1800.0
G0 X117.500 Y152.500 Z1.600 F9600.0
G1 E0 F1800.0
G1 X75.500 Y152.500 Z1.600 E1.39693 F1200.0
G1 X47.500 Y152.500 Z1.600 E2.32821 F6000.0
G1 X47.500 Y117.500 Z1.600 E3.49231 F6000.0
G1 X47.500 Y82.500 Z1.600 E4.65642 F1200.0
G1 X75.500 Y82.500 Z1.600 E5.58770 F1200.0
G1 X159.500 Y82.500 Z1.600 E8.38155 F6000.0
G1 X187.500 Y82.500 Z1.600 E9.31284 F1200.0
G1 X187.500 Y117.500 Z1.600 E10.47694 F1200.0
G1 X187.500 Y152.500 Z1.600 E11.64105 F6000.0
G1 X159.500 Y152.500 Z1.600 E12.57233 F6000.0
G1 X117.700 Y152.500 Z1.600 E14.89389 F1200.0
G92 E0
G0 X117.500 Y152.900 Z1.600 F9600.0
G1 X75.260 Y152.900 Z1.600 E1.40491 F1200.0
G1 X47.100 Y152.900 Z1.600 E2.34151 F6000.0
G1 X47.100 Y117.500 Z1.600 E3.51892 F6000.0
G1 X47.100 Y82.100 Z1.600 E4.69633 F1200.0
G1 X75.260 Y82.100 Z1.600 E5.63294 F1200.0
G1 X159.740 Y82.100 Z1.600 E8.44275 F6000.0
G1 X187.900 Y82.100 Z1.600 E9.37936 F1200.0
G1 X187.900 Y117.500 Z1.600 E10.55677 F1200.0
G1 X187.900 Y152.900 Z1.600 E11.73418 F6000.0
G1 X159.740 Y152.900 Z1.600 E12.67078 F6000.0
G1 X117.700 Y152.900 Z1.600 E15.00564 F1200.0
G92 E0
G1 E-4.0 F1800.0
G0 X117.500 Y152.500 Z1.800 F9600.0
G1 E0 F1800.0
G1 X75.500 Y152.500 Z1.800 E1.39693 F1200.0
G1 X47.500 Y152.500 Z1.800 E2.32821 F6000.0
G1 X47.500 Y117.500 Z1.800 E3.49231 F6000.0
G1 X47.500 Y82.500 Z1.800 E4.65642 F1200.0
G1 X75.500 Y82.500 Z1.800 E5.58770 F1200.0
G1 X159.500 Y82.500 Z1.800 E8.38155 F6000.0
G1 X187.500 Y82.500 Z1.800 E9.31284 F1200.0
G1 X187.500 Y117.500 Z1.800 E10.47694 F1200.0
G1 X187.500 Y152.500 Z1.800 E11.64105 F6000.0
G1 X159.500 Y152.500 Z1.800 E12.57233 F6000.0
G1 X117.700 Y152.500 Z1.800 E14.89389 F1200.0
G92 E0
G0 X117.500 Y152.900 Z1.800 F9600.0
G1 X75.260 Y152.900 Z1.800 E1.40491 F1200.0
G1 X47.100 Y152.900 Z1.800 E2.34151 F6000.0
G1 X47.100 Y117.500 Z1.800 E3.51892 F6000.0
G1 X47.100 Y82.100 Z1.800 E4.69633 F1200.0
G1 X75.260 Y82.100 Z1.800 E5.63294 F1200.0
G1 X159.740 Y82.100 Z1.800 E8.44275 F6000.0
G1 X187.900 Y82.100 Z1.800 E9.37936 F1200.0
G1 X187.900 Y117.500 Z1.800 E10.55677 F1200.0
G1 X187.900 Y152.900 Z1.800 E11.73418 F6000.0
G1 X159.740 Y152.900 Z1.800 E12.67078 F6000.0
G1 X117.700 Y152.900 Z1.800 E15.00564 F1200.0
G92 E0
G1 E-4.0 F1800.0
G0 X117.500 Y152.500 Z2.000 F9600.0
G1 E0 F1800.0
G1 X75.500 Y152.500 Z2.000 E1.39693 F1200.0
G1 X47.500 Y152.500 Z2.000 E2.32821 F6000.0
G1 X47.500 Y117.500 Z2.000 E3.49231 F6000.0
G1 X47.500 Y82.500 Z2.000 E4.65642 F1200.0
G1 X75.500 Y82.500 Z2.000 E5.58770 F1200.0
G1 X159.500 Y82.500 Z2.000 E8.38155 F6000.0
G1 X187.500 Y82.500 Z2.000 E9.31284 F1200.0
G1 X187.500 Y117.500 Z2.000 E10.47694 F1200.0
G1 X187.500 Y152.500 Z2.000 E11.64105 F6000.0
G1 X159.500 Y152.500 Z2.000 E12.57233 F6000.0
G1 X117.700 Y152.500 Z2.000 E14.89389 F1200.0
G92 E0
G0 X117.500 Y152.900 Z2.000 F9600.0
G1 X75.260 Y152.900 Z2.000 E1.40491 F1200.0
G1 X47.100 Y152.900 Z2.000 E2.34151 F6000.0
G1 X47.100 Y117.500 Z2.000 E3.51892 F6000.0
G1 X47.100 Y82.100 Z2.000 E4.69633 F1200.0
G1 X75.260 Y82.100 Z2.000 E5.63294 F1200.0
G1 X159.740 Y82.100 Z2.000 E8.44275 F6000.0
G1 X187.900 Y82.100 Z2.000 E9.37936 F1200.0
G1 X187.900 Y117.500 Z2.000 E10.55677 F1200.0
G1 X187.900 Y152.900 Z2.000 E11.73418 F6000.0
G1 X159.740 Y152.900 Z2.000 E12.67078 F6000.0
G1 X117.700 Y152.900 Z2.000 E15.00564 F1200.0
G92 E0
G1 E-4.0 F1800.0
G0 X117.500 Y152.500 Z2.200 F9600.0
G1 E0 F1800.0
G1 X75.500 Y152.500 Z2.200 E1.39693 F1200.0
G1 X47.500 Y152.500 Z2.200 E2.32821 F6000.0
G1 X47.500 Y117.500 Z2.200 E3.49231 F6000.0
G1 X47.500 Y82.500 Z2.200 E4.65642 F1200.0
G1 X75.500 Y82.500 Z2.200 E5.58770 F1200.0
G1 X159.500 Y82.500 Z2.200 E8.38155 F6000.0
G1 X187.500 Y82.500 Z2.200 E9.31284 F1200.0
G1 X187.500 Y117.500 Z2.200 E10.47694 F1200.0
G1 X187.500 Y152.500 Z2.200 E11.64105 F6000.0
G1 X159.500 Y152.500 Z2.200 E12.57233 F6000.0
G1 X117.700 Y152.500 Z2.200 E14.89389 F1200.0
G92 E0
G0 X117.500 Y152.900 Z2.200 F9600.0
G1 X75.260 Y152.900 Z2.200 E1.40491 F1200.0
G1 X47.100 Y152.900 Z2.200 E2.34151 F6000.0
G1 X47.100 Y117.500 Z2.200 E3.51892 F6000.0
G1 X47.100 Y82.100 Z2.200 E4.69633 F1200.0
G1 X75.260 Y82.100 Z2.200 E5.63294 F1200.0
G1 X159.740 Y82.100 Z2.200 E8.44275 F6000.0
G1 X187.900 Y82.100 Z2.200 E9.37936 F1200.0
G1 X187.900 Y117.500 Z2.200 E10.55677 F1200.0
G1 X187.900 Y152.900 Z2.200 E11.73418 F6000.0
G1 X159.740 Y152.900 Z2.200 E12.67078 F6000.0
G1 X117.700 Y152.900 Z2.200 E15.00564 F1200.0
G92 E0
G1 E-4.0 F1800.0
M900 K0.020
M117 K=0.020
